X: 34490
T: Riding On A Load Of Hay
R: polka
M: 2/4
K: Edorian
|:E>F GA|Be ef/e/|dB AG|FD DG/F/|
E>F GA|Be ef/e/|dB AF|1 E2 EG/F/:|2 E2 E>f||
ge fd|eB B>c|dB AG|FD D>f|
ge fd|eB B>c|dB AF|E2 E>f|
ge fd|eB B>c|dB AG|FD DF|
E/F/G F/G/A|G/A/B e>f|ge af|ee/e/ e2||

